X: 257
T: A Man's A Man
R: polka
M: 2/4
K: Cdorian
FG/A/|:B>c BF|GB c>e|d>c BF|G2G/F/G/A/|
B>c BF|GB c>e|d>c BG|1 F2FG/A/:|2 F2fe||
|:d>e fd|c2ce|d>e fB|G2Ge|
d>e fd|c2ce|d>c BG|1 F2fe:|2 F2||

